src/features/landing/assets/svg/about-vilna/Vector.svg

<svg width="1440" height="900" fill="none" xmlns="http://www.w3.org/2000/svg"><path fill-rule="evenodd" clip-rule="evenodd" d="M1503.24 188.544c-21.42 47.365-47.4 132.281-68.4 274.671-32.72 221.796-234.26 381.968-451.996 424.981-110.622 21.852-230.002 14.689-338.533-32.643-109.417-47.718-201.436-133.511-261.113-258.537C233.048 282.444-79.904 329.284-199 325.5l6.335-161.863c174.597 5.547 558.255-13.479 741.006 369.393 44.354 92.924 107.619 147.663 174.292 176.74 67.56 29.463 145.076 35.359 221.71 20.22 156.777-30.971 291.187-144.987 312.297-288.109 22.05-149.545 50.72-249.421 80.12-314.447 14.63-32.354 30.74-59.002 48.72-79.29C1400.05 31.7 1429.55 3.775 1474.43 0l16.7 161.263c19.85-1.669 31.43-9.378 35.35-12.639-.16.176-.34.369-.52.58-3.59 4.051-11.94 15.499-22.72 39.34Zm24.76-41.377c0 .061-.5.608-1.52 1.457 1.01-1.095 1.52-1.519 1.52-1.457Z" fill="url(#a)" fill-opacity=".42"/><path fill-rule="evenodd" clip-rule="evenodd" d="M1503.24 188.544c-21.42 47.365-47.4 132.281-68.4 274.671-32.72 221.796-234.26 381.968-451.996 424.981-110.622 21.852-230.002 14.689-338.533-32.643-109.417-47.718-201.436-133.511-261.113-258.537C233.048 282.444-79.904 329.284-199 325.5l6.335-161.863c174.597 5.547 558.255-13.479 741.006 369.393 44.354 92.924 107.619 147.663 174.292 176.74 67.56 29.463 145.076 35.359 221.71 20.22 156.777-30.971 291.187-144.987 312.297-288.109 22.05-149.545 50.72-249.421 80.12-314.447 14.63-32.354 30.74-59.002 48.72-79.29C1400.05 31.7 1429.55 3.775 1474.43 0l16.7 161.263c19.85-1.669 31.43-9.378 35.35-12.639-.16.176-.34.369-.52.58-3.59 4.051-11.94 15.499-22.72 39.34Zm24.76-41.377c0 .061-.5.608-1.52 1.457 1.01-1.095 1.52-1.519 1.52-1.457Z" fill="url(#b)" fill-opacity=".42"/><defs><linearGradient id="a" x1="1417.5" y1="189.5" x2="671" y2="900" gradientUnits="userSpaceOnUse"><stop stop-color="#34B9F0"/><stop offset="1" stop-color="#fff" stop-opacity="0"/></linearGradient><linearGradient id="b" x1="-103.5" y1="183.5" x2="671" y2="900" gradientUnits="userSpaceOnUse"><stop stop-color="#FFE092"/><stop offset="1" stop-color="#fff" stop-opacity="0"/></linearGradient></defs></svg>

<svg width="1440" height="900" viewBox="0 0 1440 900" fill="none" xmlns="http://www.w3.org/2000/svg">
<path fill-rule="evenodd" clip-rule="evenodd" d="M1503.24 188.544C1481.82 235.909 1455.84 320.825 1434.84 463.215C1402.12 685.011 1200.58 845.183 982.844 888.196C872.222 910.048 752.842 902.885 644.311 855.553C534.894 807.835 442.875 722.042 383.198 597.016C233.048 282.444 -79.9043 329.284 -199 325.5L-192.665 163.637C-18.0682 169.184 365.59 150.158 548.341 533.03C592.695 625.954 655.96 680.693 722.633 709.77C790.193 739.233 867.709 745.129 944.343 729.99C1101.12 699.019 1235.53 585.003 1256.64 441.881C1278.69 292.336 1307.36 192.46 1336.76 127.434C1351.39 95.0798 1367.5 68.4317 1385.48 48.1447C1400.05 31.6997 1429.55 3.77382 1474.43 0L1491.13 161.263C1510.98 159.594 1522.56 151.885 1526.48 148.624C1526.32 148.8 1526.14 148.993 1525.96 149.204C1522.37 153.255 1514.02 164.703 1503.24 188.544ZM1528 147.167C1528 147.228 1527.5 147.775 1526.48 148.624C1527.49 147.529 1528 147.105 1528 147.167Z" fill="url(#paint0_linear_19_989)" fill-opacity="0.42"/>
<path fill-rule="evenodd" clip-rule="evenodd" d="M1503.24 188.544C1481.82 235.909 1455.84 320.825 1434.84 463.215C1402.12 685.011 1200.58 845.183 982.844 888.196C872.222 910.048 752.842 902.885 644.311 855.553C534.894 807.835 442.875 722.042 383.198 597.016C233.048 282.444 -79.9043 329.284 -199 325.5L-192.665 163.637C-18.0682 169.184 365.59 150.158 548.341 533.03C592.695 625.954 655.96 680.693 722.633 709.77C790.193 739.233 867.709 745.129 944.343 729.99C1101.12 699.019 1235.53 585.003 1256.64 441.881C1278.69 292.336 1307.36 192.46 1336.76 127.434C1351.39 95.0798 1367.5 68.4317 1385.48 48.1447C1400.05 31.6997 1429.55 3.77382 1474.43 0L1491.13 161.263C1510.98 159.594 1522.56 151.885 1526.48 148.624C1526.32 148.8 1526.14 148.993 1525.96 149.204C1522.37 153.255 1514.02 164.703 1503.24 188.544ZM1528 147.167C1528 147.228 1527.5 147.775 1526.48 148.624C1527.49 147.529 1528 147.105 1528 147.167Z" fill="url(#paint1_linear_19_989)" fill-opacity="0.42"/>
<defs>
<linearGradient id="paint0_linear_19_989" x1="1417.5" y1="189.5" x2="671" y2="900" gradientUnits="userSpaceOnUse">
<stop stop-color="#34B9F0"/>
<stop offset="1" stop-color="white" stop-opacity="0"/>
</linearGradient>
<linearGradient id="paint1_linear_19_989" x1="-103.5" y1="183.5" x2="671" y2="900" gradientUnits="userSpaceOnUse">
<stop stop-color="#FFE092"/>
<stop offset="1" stop-color="white" stop-opacity="0"/>
</linearGradient>
</defs>
</svg>
